src/main/webapp/iaf/editor/app/media/icons/curlybraces.svg

<?xml version="1.0" ?><svg height="400px" version="1.1" viewBox="0 0 400 400" width="400px" xmlns="http://www.w3.org/2000/svg" xmlns:xlink="http://www.w3.org/1999/xlink"><title/><desc/><defs><path d="M157.233887,68 L157.233887,74.6796875 C147.956497,76.2568438 141.114524,79.7126198 136.707764,85.0471191 C132.301003,90.3816185 130.097656,96.0639347 130.097656,102.094238 C130.097656,108.495637 131.16454,116.427687 133.29834,125.890625 C135.617687,136.00298 136.777344,144.491665 136.777344,151.356934 C136.777344,158.964394 134.643576,166.293422 130.375977,173.344238 C126.108377,180.395055 121.052275,185.752667 115.20752,189.417236 C109.362764,193.081805 101.430714,196.352036 91.4111328,199.228027 C108.667078,204.51614 120.588346,211.682816 127.175293,220.728271 C133.76224,229.773727 137.055664,238.749467 137.055664,247.655762 C137.055664,253.036648 135.942394,260.643994 133.71582,270.478027 C131.396473,280.312061 130.236816,288.615201 130.236816,295.387695 C130.236816,311.530354 139.23575,321.178695 157.233887,324.333008 L157.233887,331.012695 C148.977009,331.012695 142.274196,330.409674 137.125244,329.203613 C131.976293,327.997553 126.24759,325.191184 119.938965,320.784424 C113.63034,316.377664 108.690203,310.880892 105.118408,304.293945 C101.546613,297.706998 99.7607422,291.027378 99.7607422,284.254883 C99.7607422,278.039031 101.198716,269.040098 104.074707,257.257812 C106.208507,248.444292 107.275391,240.836946 107.275391,234.435547 C107.275391,217.179601 98.1836847,206.974625 80,203.820312 L80,195.053223 C89.7412596,193.56884 96.722391,189.672395 100.943604,183.36377 C105.164816,177.055144 107.275391,170.329137 107.275391,163.185547 C107.275391,156.876922 106.254893,149.59428 104.213867,141.337402 C101.337876,129.647891 99.8999023,120.927275 99.8999023,115.175293 C99.8999023,103.949651 104.793652,93.3503917 114.581299,83.3771973 C124.368945,73.4040029 138.586333,68.2783217 157.233887,68 L157.233887,68 Z" id="path-1"/><filter filterUnits="objectBoundingBox" height="200%" id="filter-2" width="200%" x="-50%" y="-50%"><feOffset dx="0" dy="4" in="SourceAlpha" result="shadowOffsetOuter1"/><feGaussianBlur in="shadowOffsetOuter1" result="shadowBlurOuter1" stdDeviation="2"/><feColorMatrix in="shadowBlurOuter1" type="matrix" values="0 0 0 0 0   0 0 0 0 0   0 0 0 0 0  0 0 0 0.5 0"/></filter><path d="M243,68 L243,74.6796875 C252.27739,76.2568438 259.119363,79.7126198 263.526123,85.0471191 C267.932883,90.3816185 270.13623,96.0639347 270.13623,102.094238 C270.13623,108.495637 269.069347,116.427687 266.935547,125.890625 C264.616199,136.00298 263.456543,144.491665 263.456543,151.356934 C263.456543,158.964394 265.590311,166.293422 269.85791,173.344238 C274.12551,180.395055 279.181611,185.752667 285.026367,189.417236 C290.871123,193.081805 298.803173,196.352036 308.822754,199.228027 C291.566808,204.51614 279.645541,211.682816 273.058594,220.728271 C266.471647,229.773727 263.178223,238.749467 263.178223,247.655762 C263.178223,253.036648 264.291493,260.643994 266.518066,270.478027 C268.837414,280.312061 269.99707,288.615201 269.99707,295.387695 C269.99707,311.530354 260.998137,321.178695 243,324.333008 L243,331.012695 C251.256877,331.012695 257.959691,330.409674 263.108643,329.203613 C268.257594,327.997553 273.986297,325.191184 280.294922,320.784424 C286.603547,316.377664 291.543683,310.880892 295.115479,304.293945 C298.687274,297.706998 300.473145,291.027378 300.473145,284.254883 C300.473145,278.039031 299.035171,269.040098 296.15918,257.257812 C294.02538,248.444292 292.958496,240.836946 292.958496,234.435547 C292.958496,217.179601 302.050202,206.974625 320.233887,203.820312 L320.233887,195.053223 C310.492627,193.56884 303.511496,189.672395 299.290283,183.36377 C295.069071,177.055144 292.958496,170.329137 292.958496,163.185547 C292.958496,156.876922 293.978994,149.59428 296.02002,141.337402 C298.89601,129.647891 300.333984,120.927275 300.333984,115.175293 C300.333984,103.949651 295.440234,93.3503917 285.652588,83.3771973 C275.864941,73.4040029 261.647554,68.2783217 243,68 L243,68 Z" id="path-3"/><filter filterUnits="objectBoundingBox" height="200%" id="filter-4" width="200%" x="-50%" y="-50%"><feOffset dx="0" dy="4" in="SourceAlpha" result="shadowOffsetOuter1"/><feGaussianBlur in="shadowOffsetOuter1" result="shadowBlurOuter1" stdDeviation="2"/><feColorMatrix in="shadowBlurOuter1" type="matrix" values="0 0 0 0 0   0 0 0 0 0   0 0 0 0 0  0 0 0 0.5 0"/></filter></defs><g fill="none" fill-rule="evenodd" id="Page-1" stroke="none" stroke-width="1"><g id="curly_braces"><circle cx="200" cy="200" fill="#FE41FF" id="Background" r="200"/><g id="Combined-Shape"><use fill="black" fill-opacity="1" filter="url(#filter-2)" xlink:href="#path-1"/><use fill="#697F9B" fill-rule="evenodd" xlink:href="#path-1"/></g><g id="Combined-Shape"><use fill="black" fill-opacity="1" filter="url(#filter-4)" xlink:href="#path-3"/><use fill="#697F9B" fill-rule="evenodd" xlink:href="#path-3"/></g></g></g></svg>

<svg height="400" viewBox="0 0 400 400" width="400" xmlns="http://www.w3.org/2000/svg" xmlns:xlink="http://www.w3.org/1999/xlink"><title/><defs><path d="M157.234 68v6.68c-9.278 1.577-16.12 5.033-20.526 10.367-4.407 5.335-6.61 11.017-6.61 17.047 0 6.402 1.067 14.334 3.2 23.797 2.32 10.112 3.48 18.6 3.48 25.466 0 7.607-2.134 14.936-6.402 21.987-4.268 7.051-9.324 12.409-15.168 16.073-5.845 3.665-13.777 6.935-23.797 9.811 17.256 5.288 29.177 12.455 35.764 21.5 6.587 9.046 9.88 18.021 9.88 26.928 0 5.38-1.113 12.988-3.34 22.822-2.319 9.834-3.478 18.137-3.478 24.91 0 16.142 8.999 25.79 26.997 28.945v6.68c-8.257 0-14.96-.603-20.109-1.81-5.149-1.205-10.877-4.012-17.186-8.419-6.309-4.406-11.249-9.903-14.82-16.49-3.572-6.587-5.358-13.267-5.358-20.04 0-6.215 1.438-15.214 4.314-26.996 2.134-8.814 3.2-16.421 3.2-22.822 0-17.256-9.091-27.461-27.275-30.616v-8.767c9.741-1.484 16.722-5.38 20.944-11.69 4.22-6.308 6.331-13.034 6.331-20.177 0-6.31-1.02-13.592-3.061-21.849-2.876-11.69-4.314-20.41-4.314-26.162 0-11.225 4.894-21.825 14.681-31.798 9.788-9.973 24.005-15.099 42.653-15.377z" id="b"/><filter filterUnits="objectBoundingBox" height="200%" id="a" width="200%" x="-50%" y="-50%"><feOffset dy="4" in="SourceAlpha" result="shadowOffsetOuter1"/><feGaussianBlur in="shadowOffsetOuter1" result="shadowBlurOuter1" stdDeviation="2"/><feColorMatrix in="shadowBlurOuter1" values="0 0 0 0 0 0 0 0 0 0 0 0 0 0 0 0 0 0 0.5 0"/></filter><path d="M243 68v6.68c9.277 1.577 16.12 5.033 20.526 10.367 4.407 5.335 6.61 11.017 6.61 17.047 0 6.402-1.067 14.334-3.2 23.797-2.32 10.112-3.48 18.6-3.48 25.466 0 7.607 2.134 14.936 6.402 21.987 4.268 7.051 9.324 12.409 15.168 16.073 5.845 3.665 13.777 6.935 23.797 9.811-17.256 5.288-29.177 12.455-35.764 21.5-6.587 9.046-9.88 18.021-9.88 26.928 0 5.38 1.112 12.988 3.34 22.822 2.318 9.834 3.478 18.137 3.478 24.91 0 16.142-8.999 25.79-26.997 28.945v6.68c8.257 0 14.96-.603 20.109-1.81 5.149-1.205 10.877-4.012 17.186-8.419 6.309-4.406 11.249-9.903 14.82-16.49 3.572-6.587 5.358-13.267 5.358-20.04 0-6.215-1.438-15.214-4.314-26.996-2.134-8.814-3.2-16.421-3.2-22.822 0-17.256 9.091-27.461 27.275-30.616v-8.767c-9.741-1.484-16.723-5.38-20.944-11.69-4.22-6.308-6.332-13.034-6.332-20.177 0-6.31 1.021-13.592 3.062-21.849 2.876-11.69 4.314-20.41 4.314-26.162 0-11.225-4.894-21.825-14.681-31.798C275.865 73.404 261.648 68.278 243 68z" id="d"/><filter filterUnits="objectBoundingBox" height="200%" id="c" width="200%" x="-50%" y="-50%"><feOffset dy="4" in="SourceAlpha" result="shadowOffsetOuter1"/><feGaussianBlur in="shadowOffsetOuter1" result="shadowBlurOuter1" stdDeviation="2"/><feColorMatrix in="shadowBlurOuter1" values="0 0 0 0 0 0 0 0 0 0 0 0 0 0 0 0 0 0 0.5 0"/></filter></defs><g fill="none" fill-rule="evenodd"><circle cx="200" cy="200" fill="#FE41FF" r="200"/><use fill="#000" filter="url(#a)" xlink:href="#b"/><use fill="#697F9B" xlink:href="#b"/><g><use fill="#000" filter="url(#c)" xlink:href="#d"/><use fill="#697F9B" xlink:href="#d"/></g></g></svg>
